brandFactory_export/3.Masa/Copa bebida bar_3Masa.svg

<?xml version="1.0" encoding="UTF-8"?>
<svg width="24px" height="24px" viewBox="0 0 24 24" version="1.1" xmlns="http://www.w3.org/2000/svg" xmlns:xlink="http://www.w3.org/1999/xlink">
    <title>3.Masa/Copa bebida bar_3Masa</title>
    <g id="Symbols" stroke="none" stroke-width="1" fill="none" fill-rule="evenodd">
        <g id="3.Masa/Copa-bebida-bar_3Masa" fill="#5CB615" fill-rule="nonzero">
            <path d="M18.5747899,8.76638655 C18.5210084,8.76638655 18.4773109,8.75966387 18.4268908,8.75966387 L19.512605,7.50252101 C19.7546218,7.24369748 19.902521,6.8907563 19.902521,6.50756303 C19.902521,5.70084034 19.2571429,5.0487395 18.4571429,5.0487395 L18.4436975,5.0487395 L14.9478992,5.06554622 C14.9647059,2.60840336 16.1176471,1.45882353 18.5747899,1.45882353 C21.0184874,1.45882353 22.2084034,2.65546218 22.2084034,5.11596639 C22.2084034,7.60672269 21.0521008,8.76638655 18.5747899,8.76638655 M17.2672269,7.75798319 L5.39495798,7.75798319 L4.27563025,6.57142857 L18.4537815,6.50420168 L17.3579832,7.77478992 C17.3243697,7.77478992 17.297479,7.75798319 17.2672269,7.75798319 M18.5747899,0 C15.3142857,0 13.5159664,1.80168067 13.4957983,5.07226891 L7.27731092,5.10252101 L5.03193277,2.84369748 C4.7092437,2.51764706 4.25882353,2.33277311 3.79831933,2.33277311 L0.756302521,2.33277311 C0.356302521,2.33277311 0.0302521008,2.65882353 0.0302521008,3.06218487 C0.0302521008,3.46554622 0.356302521,3.79159664 0.756302521,3.79159664 L3.79831933,3.79159664 C3.87563025,3.79159664 3.95294118,3.82184874 4.00672269,3.87563025 L5.23361345,5.11260504 L4.26218487,5.11596639 C3.68403361,5.11932773 3.16302521,5.46554622 2.93445378,6.00336134 C2.7092437,6.53781513 2.82016807,7.15966387 3.21680672,7.57983193 L10.5983193,15.3915966 C10.6991597,15.4991597 10.8168067,15.5798319 10.9411765,15.6504202 L10.9411765,20.2084034 L6.57142857,22.2319328 C6.26218487,22.3764706 6.09411765,22.7159664 6.16470588,23.0521008 C6.23865546,23.3848739 6.53109244,23.6235294 6.87058824,23.6235294 L16.8672269,23.6033613 C17.2134454,23.6033613 17.5092437,23.3579832 17.5764706,23.0184874 C17.6436975,22.6789916 17.4621849,22.3361345 17.1462185,22.2016807 L12.3865546,20.1915966 L12.3865546,15.6302521 C12.5176471,15.5529412 12.6386555,15.4588235 12.7394958,15.3411765 L17.2571429,10.107563 C17.6638655,10.1815126 18.097479,10.2252101 18.5680672,10.2252101 C21.8453782,10.2252101 23.6504389,8.41008403 23.6504389,5.11260504 C23.6571429,1.81512605 21.8521008,0 18.5747899,0" id="Copa-bebida-bar_3Masa"></path>
        </g>
    </g>
</svg>

<svg width="24" height="24" viewBox="0 0 24 24" xmlns="http://www.w3.org/2000/svg"><path d="M18.575 8.766c-.054 0-.098-.006-.148-.006l1.086-1.257c.242-.26.39-.612.39-.995a1.45 1.45 0 00-1.446-1.46h-.013l-3.496.018c.017-2.458 1.17-3.607 3.627-3.607 2.443 0 3.633 1.196 3.633 3.657 0 2.49-1.156 3.65-3.633 3.65m-1.308-1.008H5.395l-1.12-1.187 14.179-.067-1.096 1.27c-.034 0-.06-.016-.09-.016M18.574 0c-3.26 0-5.059 1.802-5.08 5.072l-6.218.03-2.245-2.258a1.745 1.745 0 00-1.234-.511H.756c-.4 0-.726.326-.726.73 0 .403.326.729.726.729h3.042c.078 0 .155.03.209.084l1.227 1.237-.972.003a1.45 1.45 0 00-1.328.887 1.47 1.47 0 00.283 1.577l7.381 7.812c.101.107.219.188.343.258v4.558l-4.37 2.024a.736.736 0 00-.406.82.726.726 0 00.706.572l9.996-.02a.723.723 0 00.71-.586.735.735 0 00-.43-.816l-4.76-2.01V15.63c.13-.077.252-.171.352-.289l4.518-5.233c.407.074.84.117 1.311.117 3.277 0 5.082-1.815 5.082-5.112C23.657 1.815 21.852 0 18.575 0" fill="#5CB615" fill-rule="nonzero"/></svg>
